!!!COM: Vivaldi, Antonio Lucio
!!!CDT: 1678/03/04-1741/08/28
!!!OPR: 12 sonatas for two violins and basso continuo
!!!OTL: Sonata in G major, op. @{OPS}, no. @{ONM} (@{SCT})
!!!OPS: 1
!!!ONM: 1
!!!OMV: 4. Capricio
!!!SCT: RV 73
!!!SCA: Antonio Vivaldi: Thematisch-systematisches Verzeichnis seiner Werke (Ryom-Verzeichnis)
!!!OMD: Allegro
!!!key: g
**kern	**dynam	**fb	**kern	**dynam	**kern	**dynam
*part3	*	*	*part2	*	*part1	*
*staff3	*	*	*staff2	*	*staff1	*
*ICstr&ICklav	*	*	*ICstr	*	*ICstr	*
*Icello&Icemba	*	*	*Ivioln	*	*Ivioln	*
*	*	*	*I#2	*	*I#1	*
*I"Violoncello\nContinuo	*	*	*I"Violin 2	*	*I"Violin 1	*
*I'bc	*	*	*I'v2	*	*I'v1	*
*>[A,A,B,B]	*>[A,A,B,B]	*>[A,A,B,B]	*>[A,A,B,B]	*>[A,A,B,B]	*>[A,A,B,B]	*>[A,A,B,B]
*>norep[A,B]	*>norep[A,B]	*>norep[A,B]	*>norep[A,B]	*>norep[A,B]	*>norep[A,B]	*>norep[A,B]
*>A	*>A	*>A	*>A	*>A	*>A	*>A
*clefF4	*	*	*clefG2	*	*clefG2	*
*k[b-]	*	*	*k[b-]	*	*k[b-]	*
*g:	*	*	*g:	*	*g:	*
*M3/4	*	*	*M3/4	*	*M3/4	*
*MM220	*	*	*MM220	*	*MM220	*
=1	=1	=1	=1	=1	=1	=1
4GG/	.	.	4r	.	8gg\L	.
.	.	.	.	.	8dd\	.
4G\	.	.	8r	.	8b-y\	.
.	.	.	8dd\L	.	8g\J	.
4GG/	.	.	8b-y\	.	8gg\	.
.	.	.	8g\J	.	8r	.
=2	=2	=2	=2	=2	=2	=2
4FF#X/	.	6	4r	.	8aa\L	.
.	.	.	.	.	8ff#X\	.
4D\	.	.	8r	.	8dd\	.
.	.	.	8ff#X\L	.	8a\J	.
4FF#X/	.	.	8dd\	.	8aa\	.
.	.	.	8a\J	.	8r	.
=3	=3	=3	=3	=3	=3	=3
4GG/	.	.	4r	.	8bb-y\L	.
.	.	.	.	.	8gg\	.
4G\	.	.	8r	.	8dd\	.
.	.	.	8gg\L	.	8b-y\J	.
4GG/	.	.	8dd\	.	8bb-y\	.
.	.	.	8b-y\J	.	8r	.
=4	=4	=4	=4	=4	=4	=4
4FF#X/	.	6	4r	.	8aa\L	.
.	.	.	.	.	8ff#X\	.
4D\	.	.	8r	.	8dd\	.
.	.	.	8ff#X\L	.	8a\J	.
4FF#X/	.	.	8dd\	.	8aa\	.
.	.	.	8a\J	.	8r	.
=5	=5	=5	=5	=5	=5	=5
4GG/	.	.	4r	.	8bb-y\L	.
.	.	.	.	.	8gg\	.
4G\	.	.	8r	.	8dd\	.
.	.	.	8gg\L	.	8b-y\J	.
4GG/	.	.	8dd\	.	8bb-y\	.
.	.	.	8b-y\J	.	8r	.
=6	=6	=6	=6	=6	=6	=6
4FF#X/	.	6	4r	.	8aa\L	.
.	.	.	.	.	8ff#X\	.
4D\	.	.	8r	.	8dd\	.
.	.	.	8ff#X\L	.	8a\J	.
4FF#X/	.	.	8dd\	.	8aa\	.
.	.	.	8a\J	.	8r	.
!!LO:LB:g=original
=7	=7	=7	=7	=7	=7	=7
4GG/	.	.	4r	.	8gg\L	.
.	.	.	.	.	8dd\	.
4G\	.	.	8r	.	8b-y\	.
.	.	.	8dd\L	.	8g\J	.
4GG/	.	.	8b-y\	.	8gg\	.
.	.	.	8g\J	.	8r	.
=8	=8	=8	=8	=8	=8	=8
2.D\	.	#	2.a/	.	2.ff#X\	.
=9:|!|:	=9:|!|:	=9:|!|:	=9:|!|:	=9:|!|:	=9:|!|:	=9:|!|:
*>B	*>B	*>B	*>B	*>B	*>B	*>B
4GG/	.	n	4r	.	8gg\L	.
.	.	.	.	.	8dd\	.
4G\	.	.	8r	.	8bn\	.
.	.	.	8dd/L	.	8g\J	.
4GG/	.	7nr	8bn/	.	8ffn\	.
.	.	.	8d/J	.	8r	.
=10	=10	=10	=10	=10	=10	=10
4C/	.	-	4r	.	8ee-X/L	.
.	.	.	.	.	8cc/	.
4c\	.	.	8r	.	8g/	.
.	.	.	8cc/L	.	8e-X/J	.
4C/	.	.	8g/	.	8ee-X\	.
.	.	.	8e-X/J	.	8r	.
=11	=11	=11	=11	=11	=11	=11
4AA/	.	6	4r	.	8ff\L	.
.	.	.	.	.	8cc\	.
4F\	.	.	8r	.	8a\	.
.	.	.	8cc/L	.	8f\J	.
4AA/	.	.	8a/	.	8ff\	.
.	.	.	8f/J	.	8r	.
=12	=12	=12	=12	=12	=12	=12
4BB-y/	.	.	4r	.	8dd/L	.
.	.	.	.	.	8b-y/	.
4B-y\	.	.	8r	.	8f/	.
.	.	.	8ff\L	.	8d/J	.
4BB-y/	.	.	8dd\	.	8dd\	.
.	.	.	8b-y\J	.	8r	.
=13	=13	=13	=13	=13	=13	=13
4D\	.	6	4r	.	8bb-y\L	.
.	.	.	.	.	8ff\	.
4B-y\	.	.	8r	.	8dd\	.
.	.	.	8ff\L	.	8b-y\J	.
4D\	.	.	8dd\	.	8bb-y\	.
.	.	.	8b-y\J	.	8r	.
!!LO:PB:g=original
=14	=14	=14	=14	=14	=14	=14
4E-X\	.	5	4r	.	8bb-y\L	.
.	.	.	.	.	8gg\	.
4e-X\	.	.	8r	.	8ee-X\	.
.	.	.	8gg\L	.	8b-y\J	.
4E-X\	.	.	8ee-X\	.	8bb-y\	.
.	.	.	8b-y\J	.	8r	.
=15	=15	=15	=15	=15	=15	=15
4En\	.	6	4r	.	8ccc\L	.
.	.	.	.	.	8gg\	.
4c\	.	.	8r	.	8een\	.
.	.	.	8gg\L	.	8cc\J	.
4E\	.	.	8een\	.	8ccc\	.
.	.	.	8cc\J	.	8r	.
=16	=16	=16	=16	=16	=16	=16
4F\	.	5	4r	.	8ccc\L	.
.	.	.	.	.	8aa\	.
4f\	.	.	8r	.	8ff\	.
.	.	.	8aa\L	.	8cc\J	.
4F\	.	.	8ff\	.	8ccc\	.
.	.	.	8cc\J	.	8r	.
=17	=17	=17	=17	=17	=17	=17
4F#X\	.	6	4r	.	8ddd\L	.
.	.	.	.	.	8aa\	.
4f#X\	.	.	8r	.	8ff#X\	.
.	.	.	8aa\L	.	8dd\J	.
4F#X\	.	.	8ff#X\	.	8ddd\	.
.	.	.	8dd\J	.	8r	.
=18	=18	=18	=18	=18	=18	=18
4G\	.	5	4r	.	8ddd\L	.
.	.	.	.	.	8bb-y\	.
4B-y\	.	6	8r	.	8gg\	.
.	.	.	8dd\L	.	8dd\J	.
4G\	.	.	8b-y\	.	8ddd\	.
.	.	.	8g\J	.	8r	.
=19	=19	=19	=19	=19	=19	=19
4A\	.	7	4r	.	8ccc\L	.
.	.	.	.	.	8aa\	.
4d\	.	7 #	8r	.	8ff#X\	.
.	.	.	8aa\L	.	8dd\J	.
4D\	.	.	8ff#X\	.	8ccc\	.
.	.	.	8dd\J	.	8r	.
=20	=20	=20	=20	=20	=20	=20
4D\	.	7 #	4r	.	8ccc\L	.
.	.	.	.	.	8aa\	.
4d\	.	.	8r	.	8ff#X\	.
.	.	.	8aa\L	.	8dd\J	.
4D\	.	.	8ff#X\	.	8ccc\	.
.	.	.	8dd\J	.	8r	.
!!LO:LB:g=original
=21	=21	=21	=21	=21	=21	=21
4D\	.	6 4	4r	.	8bb-y\L	.
.	.	.	.	.	8gg\	.
4d\	.	.	8r	.	8dd\	.
.	.	.	8gg\L	.	8b-y\J	.
4D\	.	.	8dd\	.	8bb-y\	.
.	.	.	8b-y\J	.	8r	.
=22	=22	=22	=22	=22	=22	=22
4D\	.	5 #	4r	.	8aa\L	.
.	.	.	.	.	8ff#X\	.
4d\	.	.	8r	.	8dd\	.
.	.	.	8aa\L	.	8a\J	.
4D\	.	.	8ff#X\	.	8aa\	.
.	.	.	8dd\J	.	8r	.
=23	=23	=23	=23	=23	=23	=23
4D\	p	6 4	4r	.	8bb-y\L	p
.	.	.	.	.	8gg\	.
4d\	.	.	8r	.	8dd\	.
.	.	.	8gg\L	p	8b-y\J	.
4D\	.	.	8dd\	.	8bb-y\	.
.	.	.	8b-y\J	.	8r	.
=24	=24	=24	=24	=24	=24	=24
4D\	.	5 #	4r	.	8aa\L	.
.	.	.	.	.	8ff#X\	.
4d\	.	.	8r	.	8dd\	.
.	.	.	8ff#X\L	.	8a\J	.
4D\	.	.	8dd\	.	8aa\	.
.	.	.	8a\J	.	8r	.
=25	=25	=25	=25	=25	=25	=25
4GG/	f	.	4r	.	8gg\L	f
.	.	.	.	.	8dd\	.
4G\	.	.	8r	.	8b-y\	.
.	.	.	8dd\L	f	8g\J	.
4GG/	.	.	8b-y\	.	8gg\	.
.	.	.	8g\J	.	8r	.
=26	=26	=26	=26	=26	=26	=26
4DD/	.	#	4r	.	8ff#X/L	.
.	.	.	.	.	8dd/	.
4D\	.	.	8r	.	8a/	.
.	.	.	8dd\L	.	8d/J	.
4DD/	.	.	8a\	.	4ff#X\	.
.	.	.	8dd\J	.	.	.
=27	=27	=27	=27	=27	=27	=27
2.GG/;	.	.	2.b-y\;	.	2.gg\;	.
=:|!	=:|!	=:|!	=:|!	=:|!	=:|!	=:|!
*-	*-	*-	*-	*-	*-	*-
!!!SMS: RV 73 / Estienne Roger (No. 363), Amsterdam [facs.]
!!!ENC: Fran Bennion  rev. 05/12/21 E Correia
!!!END: 2004/09/23
!!!ONB: Converted from MuseData with musedata2hum on Sat May 11 12:01:53 2024
!!!YEM: (C) 2004, 2019 Center for Computer Assisted Research in the Humanities
!!!system-decoration: [(s1,s2,s3)]
!!!URL-info: https://wiki.ccarh.org/wiki/MuseData:_Antonio_Vivaldi#Op._1:_Suonate_da_camera_a_tr.C3.A8.2C_due_violini_e_violone_o_cembalo Information about Vivaldi Op. 1 on the CCARH wiki
!!!URL-pdf: https://pdf.musedata.org/vivaldi-op01-no01.pdf#page=4 MuseData edition
!!!URL-pdf: https://s9.imslp.org/files/imglnks/usimg/1/18/IMSLP280399-PMLP10351-Vivaldi_Sonatas_Op_1_-_Violino_Primo.pdf#page=3 Violino primo part, Amsterdam: Estienne Roger, n.d.(ca.1723). Plate 363.
!!!URL-pdf: https://s9.imslp.org/files/imglnks/usimg/d/d5/IMSLP280400-PMLP10351-Vivaldi_Sonatas_Op_1_-_Violino_Secondo.pdf#page=3 Violino secondo part, Amsterdam: Estienne Roger, n.d.(ca.1723). Plate 363.
!!!URL-pdf: https://s9.imslp.org/files/imglnks/usimg/8/89/IMSLP280401-PMLP10351-Vivaldi_Sonatas_Op_1_-_Organo_e_Violoncello.pdf#page=3 Organo e Violoncello parts, Amsterdam: Estienne Roger, n.d.(ca.1723). Plate 363.
!!!URL-youtube: https://www.youtube.com/watch?v=P5HHPe_W6Uo&t=304s L'Arte dell'Arco
!!!URL-youtube: https://www.youtube.com/watch?v=vFz1e6g68iQ&t=311s Seattle Baroque Soloists (2010)
!!!title: @{OTL}, mov. @{OMV}
!!!filter-vcross: vcross
!!!mei: scoreDef@tempo.dist="5"
!!!EEV: 2024/05/11
!!!source-file: https://bitbucket.org/musedata/vivaldi/src/master/roger/op1/no01/stage2/04/01
!!!source-file: https://bitbucket.org/musedata/vivaldi/src/master/roger/op1/no01/stage2/04/02
!!!source-file: https://bitbucket.org/musedata/vivaldi/src/master/roger/op1/no01/stage2/04/03
!!!source-file: https://bitbucket.org/musedata/vivaldi/src/master/roger/op1/no01/stage2/04/04
